storage/app/icons/phosphoricons/regular/chat-text.svg

<svg xmlns="http://www.w3.org/2000/svg" viewBox="0 0 256 256" fill="currentColor"><path d="M216,48H40A16,16,0,0,0,24,64V224a15.85,15.85,0,0,0,9.24,14.5A16.13,16.13,0,0,0,40,240a15.89,15.89,0,0,0,10.25-3.78l.09-.07L83,208H216a16,16,0,0,0,16-16V64A16,16,0,0,0,216,48ZM40,224h0ZM216,192H80a8,8,0,0,0-5.23,1.95L40,224V64H216ZM88,112a8,8,0,0,1,8-8h64a8,8,0,0,1,0,16H96A8,8,0,0,1,88,112Zm0,32a8,8,0,0,1,8-8h64a8,8,0,1,1,0,16H96A8,8,0,0,1,88,144Z"/></svg>

<svg xmlns="http://www.w3.org/2000/svg" fill="currentColor" viewBox="0 0 256 256"><path d="M216 48H40a16 16 0 0 0-16 16v160a15.85 15.85 0 0 0 9.24 14.5A16.1 16.1 0 0 0 40 240a15.9 15.9 0 0 0 10.25-3.78l.09-.07L83 208h133a16 16 0 0 0 16-16V64a16 16 0 0 0-16-16m0 144H80a8 8 0 0 0-5.23 1.95L40 224V64h176ZM88 112a8 8 0 0 1 8-8h64a8 8 0 0 1 0 16H96a8 8 0 0 1-8-8m0 32a8 8 0 0 1 8-8h64a8 8 0 1 1 0 16H96a8 8 0 0 1-8-8"/></svg>
